build/category/BarChartOutline.svg

<svg xmlns="http://www.w3.org/2000/svg" fill="none" viewBox="0 0 24 24" focusable="false"><path d="M0 0H24V24H0z" transform="matrix(1 0 0 -1 0 24)"/><path fill="#74767B" fill-rule="evenodd" d="M5.46506 19.9947L4.02988 19.9947C3.6709 19.9947 3.37988 19.7037 3.37988 19.3447C3.37988 18.9857 3.6709 18.6947 4.02988 18.6947L4.85142 18.6947L4.85142 8.97522C4.85142 7.8989 5.72395 7.02637 6.80027 7.02637C7.87659 7.02637 8.74912 7.8989 8.74912 8.97522L8.74912 18.6947L10.0492 18.6947L10.0492 11.9968C10.0492 10.9199 10.9222 10.0469 11.9991 10.0469C13.076 10.0469 13.949 10.9199 13.949 11.9968L13.949 18.6947L15.2489 18.6947L15.2489 5.94992C15.2489 4.87301 16.1219 4 17.1988 4C18.2757 4 19.1487 4.87301 19.1487 5.94992L19.1487 18.6947L19.9952 18.6947C20.3541 18.6947 20.6452 18.9857 20.6452 19.3447C20.6452 19.7037 20.3541 19.9947 19.9952 19.9947L18.5351 19.9947C18.5068 19.9982 18.478 20 18.4487 20L15.9489 20C15.9196 20 15.8908 19.9982 15.8625 19.9947L13.3354 19.9947C13.3071 19.9982 13.2782 20 13.249 20L10.7492 20C10.7199 20 10.6911 19.9982 10.6628 19.9947L8.13547 19.9947C8.10718 19.9982 8.07836 20 8.04912 20L5.55142 20C5.52218 20 5.49336 19.9982 5.46506 19.9947ZM16.5489 18.6947L17.8487 18.6947L17.8487 5.94992C17.8487 5.59098 17.5577 5.3 17.1988 5.3C16.8399 5.3 16.5489 5.59098 16.5489 5.94992L16.5489 18.6947ZM11.3492 11.9968L11.3492 18.6947L12.649 18.6947L12.649 11.9968C12.649 11.6379 12.358 11.3469 11.9991 11.3469C11.6401 11.3469 11.3492 11.6379 11.3492 11.9968ZM7.44912 18.6947L7.44912 8.97522C7.44912 8.61687 7.15862 8.32637 6.80027 8.32637C6.44192 8.32637 6.15142 8.61687 6.15142 8.97522L6.15142 18.6947L7.44912 18.6947Z"/></svg>

<svg xmlns="http://www.w3.org/2000/svg" fill="none" viewBox="0 0 24 24" focusable="false"><path fill="#74767B" fill-rule="evenodd" d="M5.46 19.99H4.02c-.35 0-.65-.29-.65-.65s.3-.65.65-.65h.83V8.97a1.946 1.946 0 1 1 3.89 0v9.72h1.3v-6.7c0-1.08.88-1.95 1.95-1.95 1.08 0 1.95.87 1.95 1.95v6.7h1.3V5.94a1.95 1.95 0 0 1 3.9 0v12.75h.85c.36 0 .65.29.65.65s-.29.65-.65.65h-1.46c-.03 0-.06.01-.09.01h-2.5c-.03 0-.05-.01-.08-.01h-2.53c-.03 0-.06.01-.09.01h-2.5c-.02 0-.05-.01-.08-.01H8.13c-.03 0-.06.01-.09.01H5.55c-.03 0-.06-.01-.09-.01m11.08-1.3h1.3V5.94c0-.35-.29-.65-.65-.65s-.65.3-.65.65zm-5.2-6.7v6.7h1.3v-6.7c0-.36-.29-.65-.65-.65-.35 0-.65.29-.65.65m-3.9 6.7V8.97c0-.36-.29-.65-.64-.65-.36 0-.65.29-.65.65v9.72z"/></svg>
